yudao-ui-admin/src/assets/icons/svg/time-range.svg

<?xml version="1.0" standalone="no"?><!DOCTYPE svg PUBLIC "-//W3C//DTD SVG 1.1//EN" "http://www.w3.org/Graphics/SVG/1.1/DTD/svg11.dtd"><svg t="1579774825624" class="icon" viewBox="0 0 1024 1024" version="1.1" xmlns="http://www.w3.org/2000/svg" p-id="1248" xmlns:xlink="http://www.w3.org/1999/xlink" width="200" height="200"><defs><style type="text/css"></style></defs><path d="M498.595712 482.290351 345.420077 482.290351l0 57.307194 210.477712 0L555.897789 274.196942l-57.301054 0L498.596735 482.290351zM498.595712 482.290351" p-id="1249"></path><path d="M577.685002 644.98478l379.879913 0 0 57.302077L577.685002 702.286858 577.685002 644.98478 577.685002 644.98478zM577.685002 644.98478" p-id="1250"></path><path d="M577.685002 773.764795l379.879913 0 0 57.307194L577.685002 831.071989 577.685002 773.764795 577.685002 773.764795zM577.685002 773.764795" p-id="1251"></path><path d="M577.685002 902.549927l379.879913 0 0 57.307194L577.685002 959.857121 577.685002 902.549927 577.685002 902.549927zM577.685002 902.549927" p-id="1252"></path><path d="M102.523001 382.290823c4.450359 2.615571 9.470699 3.954055 14.530948 3.954055 2.969635 0 5.952572-0.461511 8.836249-1.394766l190.809767-61.886489c15.052834-4.882194 23.297612-21.040199 18.415418-36.08894-4.882194-15.052834-21.040199-23.297612-36.093033-18.415418L175.676092 308.458257c15.994276-26.115797 35.170011-50.537 57.370639-72.743768 73.767074-73.767074 171.845857-114.388237 276.16783-114.388237 104.32095 0 202.39564 40.622186 276.16169 114.388237s114.393353 171.845857 114.393353 276.16783c0 26.427906-2.615571 52.449559-7.709589 77.780481l58.302871 0c4.464685-25.499767 6.708795-51.470255 6.708795-77.780481 0-60.449767-11.845793-119.102608-35.204803-174.336584-22.559808-53.334719-54.850236-101.226472-95.968725-142.349055-41.122583-41.122583-89.017406-73.408917-142.348032-95.968725C628.317169 75.866898 569.659211 64.021106 509.215584 64.021106c-60.448744 0-119.106702 11.845793-174.336584 35.207873-53.334719 22.559808-101.230566 54.846142-142.349055 95.968725-23.980157 23.980157-44.934398 50.278103-62.727647 78.601172l-20.738323-105.655342c-3.043313-15.527648-18.105357-25.642007-33.631982-22.599717-15.527648 3.048429-25.64303 18.105357-22.599717 33.637098l36.102243 183.932126C90.51348 371.153158 95.460142 378.13313 102.523001 382.290823L102.523001 382.290823zM102.523001 382.290823" p-id="1253"></path><path d="M126.020158 587.9416 67.768453 587.9416c5.759167 33.679054 15.368012 66.544579 28.789697 98.278327 22.559808 53.333696 54.850236 101.225449 95.971795 142.348032 41.122583 41.122583 89.014336 73.408917 142.349055 95.968725 54.112432 22.88829 111.517863 34.71157 170.668031 35.18229L505.547031 902.395408c-102.94972-0.941442-199.594851-41.445948-272.499277-114.349351C177.545672 732.543975 140.810003 663.275355 126.020158 587.9416L126.020158 587.9416zM126.020158 587.9416" p-id="1254"></path></svg>

<svg class="icon" viewBox="0 0 1024 1024" xmlns="http://www.w3.org/2000/svg" width="200" height="200"><defs><style/></defs><path d="M498.596 482.29H345.42v57.308h210.478V274.197h-57.301V482.29zm0 0"/><path d="M577.685 644.985h379.88v57.302h-379.88v-57.302zm0 0"/><path d="M577.685 773.765h379.88v57.307h-379.88v-57.307zm0 0"/><path d="M577.685 902.55h379.88v57.307h-379.88V902.55zm0 0"/><path d="M102.523 382.29a28.668 28.668 0 0023.367 2.56l190.81-61.886c15.053-4.883 23.298-21.04 18.415-36.09-4.882-15.052-21.04-23.297-36.093-18.415l-123.346 40c15.994-26.117 35.17-50.538 57.37-72.745 73.768-73.767 171.847-114.388 276.169-114.388 104.32 0 202.395 40.622 276.161 114.388S899.77 407.56 899.77 511.882c0 26.428-2.616 52.45-7.71 77.78h58.303c4.465-25.499 6.709-51.47 6.709-77.78 0-60.45-11.846-119.102-35.205-174.336-22.56-53.335-54.85-101.227-95.969-142.35-41.122-41.122-89.017-73.408-142.348-95.968-55.233-23.361-113.89-35.207-174.334-35.207-60.45 0-119.107 11.846-174.337 35.208-53.335 22.56-101.23 54.846-142.35 95.969-23.98 23.98-44.933 50.278-62.727 78.6l-20.738-105.654c-3.043-15.528-18.105-25.642-33.632-22.6-15.528 3.048-25.643 18.105-22.6 33.637l36.103 183.932a28.666 28.666 0 0013.588 19.178zm0 0"/><path d="M126.02 587.942H67.768c5.76 33.679 15.368 66.544 28.79 98.278 22.56 53.334 54.85 101.225 95.972 142.348 41.123 41.123 89.014 73.409 142.349 95.969 54.112 22.888 111.518 34.711 170.668 35.182v-57.324c-102.95-.941-199.595-41.446-272.5-114.349-55.501-55.502-92.237-124.77-107.027-200.104zm0 0"/></svg>
